svg/general/x.svg

<svg width="16" height="16" viewBox="0 0 16 16" fill="none" xmlns="http://www.w3.org/2000/svg">
<path d="M9.88 8.035L15.58 13.735L13.68 15.635L7.98 9.935L2.28 15.635L0.379997 13.735L6.08 8.035L0.379997 2.335L2.28 0.435001L7.98 6.135L13.68 0.435001L15.58 2.335L9.88 8.035Z" fill="black"/>
</svg>

<svg id="Layer_1" data-name="Layer 1" xmlns="http://www.w3.org/2000/svg" viewBox="0 0 16 16"><title>x</title><path d="M9.88,8.035l5.7,5.7-1.9,1.9-5.7-5.7-5.7,5.7-1.9-1.9,5.7-5.7-5.7-5.7,1.9-1.9,5.7,5.7,5.7-5.7,1.9,1.9Z"/></svg>
